dist/svg/partner-error-o.svg

<svg width="17" height="16" viewBox="0 0 17 16" fill="rgb(34, 34, 34)" xmlns="http://www.w3.org/2000/svg"><title>partner-error-o</title><path d="M4.99999 11C4.99999 10.998 4.99999 10.996 4.99999 10.994C4.99999 10.589 5.03999 10.194 5.11599 9.81199L5.10999 9.84999L4.44999 9.35999C4.00299 9.04399 3.61599 8.73499 3.24499 8.40699L3.25999 8.41999C2.39399 7.52699 1.64299 6.51499 1.03699 5.41199L0.999987 5.33999L3.55999 1.51999L4.08999 1.69999L4.69999 1.90999C4.48799 2.17899 4.35999 2.52299 4.35999 2.89599C4.35999 3.05099 4.38199 3.19999 4.42299 3.34099L4.41999 3.32999C4.51999 3.70399 4.74799 4.01399 5.05399 4.21599L5.05999 4.21999C5.23199 4.35099 5.44399 4.43799 5.67499 4.45999H5.67999L9.40999 4.72999L9.89999 5.08999C10.212 5.03299 10.571 4.99999 10.937 4.99999C10.959 4.99999 10.981 4.99999 11.003 4.99999H11H11.56L10.8 4.43999L10.43 4.16999L10.11 3.91999C9.98999 3.79699 9.83199 3.71099 9.65499 3.68099L9.64999 3.67999L7.84999 3.54999L5.84999 3.39999C5.64899 3.37199 5.48799 3.22499 5.44099 3.03299L5.43999 3.02999C5.42299 2.98099 5.41399 2.92399 5.41399 2.86599C5.41399 2.65799 5.53299 2.47899 5.70699 2.39199L5.70999 2.39099C5.81099 2.35899 5.92699 2.34099 6.04699 2.34099C6.05899 2.34099 6.06999 2.34099 6.08199 2.34199H6.07999L7.27999 2.28199C7.86299 2.27799 8.42799 2.21299 8.97299 2.09199L8.91999 2.10199C10.147 1.82199 11.206 1.47899 12.221 1.05299L12.09 1.10199L15 4.60199C14.78 5.09199 14.56 5.55199 14.33 5.99199C14.625 6.19099 14.883 6.39799 15.123 6.62499L15.12 6.62199C15.41 6.08199 15.68 5.52199 15.96 4.91199C16.007 4.81199 16.035 4.69399 16.035 4.56999C16.035 4.37299 15.965 4.19199 15.849 4.04999L15.85 4.05099L12.75 0.330992C12.604 0.153992 12.385 0.0419922 12.139 0.0419922C12.031 0.0419922 11.928 0.0639922 11.834 0.102992L11.839 0.100992C10.957 0.471992 9.89599 0.814992 8.80099 1.07299L8.65899 1.10099C8.22299 1.19599 7.72299 1.25099 7.20899 1.25099H6.37899C5.56099 1.05199 4.89399 0.845992 4.24199 0.606992L4.37899 0.650992L3.68899 0.510992H3.46899C3.19699 0.513992 2.95799 0.654992 2.82099 0.867992L2.81899 0.870992L0.148987 4.87099C0.0709868 4.99399 0.0239868 5.14499 0.0239868 5.30599C0.0239868 5.46699 0.0709868 5.61799 0.150987 5.74399L0.148987 5.74099C0.680987 6.72199 1.22399 7.55899 1.82499 8.34999L1.78899 8.30099C1.61899 8.52899 1.50999 8.80999 1.48899 9.11599V9.12099C1.48699 9.15099 1.48599 9.18699 1.48599 9.22199C1.48599 9.59799 1.61899 9.94399 1.84099 10.213L1.83899 10.21C2.01399 10.421 2.24499 10.581 2.50899 10.667L2.51899 10.67C2.48999 10.746 2.46599 10.837 2.44999 10.931L2.44899 10.94C2.44699 10.971 2.44599 11.007 2.44599 11.044C2.44599 11.423 2.57899 11.771 2.80199 12.043L2.79999 12.04C3.04099 12.338 3.39399 12.536 3.79499 12.57H3.79999H3.90999C4.04499 12.563 4.17099 12.538 4.28999 12.497L4.27999 12.5C4.33699 12.704 4.42899 12.881 4.55199 13.033L4.54999 13.03C4.77699 13.307 5.10999 13.491 5.48499 13.52H5.48999H5.55999C5.20799 12.781 5.00199 11.915 4.99999 11.001V11ZM2.99999 9.74999C2.86999 9.74099 2.75599 9.67699 2.68099 9.58099L2.67999 9.57999C2.60399 9.48499 2.55799 9.36399 2.55799 9.23199C2.55799 9.21699 2.55899 9.20299 2.55999 9.18799V9.18999C2.55899 9.18099 2.55899 9.17099 2.55899 9.15999C2.55899 9.14899 2.55899 9.13899 2.55999 9.12899V9.12999C2.71999 9.27999 2.91999 9.44999 3.18999 9.65999C3.13699 9.70399 3.07299 9.73499 3.00299 9.74999H2.99999ZM4.25999 11.47C4.18199 11.544 4.07599 11.589 3.95999 11.59C3.82799 11.579 3.71399 11.511 3.64099 11.411L3.63999 11.41C3.52599 11.309 3.45299 11.163 3.44999 11.001V11C3.45699 10.854 3.52099 10.723 3.61999 10.63L3.90999 10.36L3.99999 10.31L4.81999 10.92L4.25999 11.47Z" fill="rgb(34, 34, 34)" fill-opacity="1.00"/><path d="M14 6.99999C13.44 6.56099 12.766 6.23999 12.031 6.08599L12 6.07999C11.703 6.01699 11.361 5.98099 11.011 5.98099C8.966 5.98099 7.207 7.20899 6.433 8.96799L6.42 8.99999C6.29 9.28499 6.18 9.61999 6.106 9.96699L6.1 9.99999C6.036 10.299 6 10.643 6 10.995C6 10.997 6 10.999 6 11C6 11.13 6 11.25 6 11.38C6.009 11.573 6.027 11.752 6.054 11.928L6.05 11.9C6.05 11.9 6.05 11.97 6.05 12C6.05 12.03 6.13 12.26 6.17 12.39C6.233 12.633 6.301 12.837 6.382 13.033L6.37 13C6.464 13.199 6.554 13.363 6.652 13.521L6.64 13.5C7.526 14.982 9.122 15.959 10.946 15.959C13.707 15.959 15.946 13.72 15.946 10.959C15.946 9.35299 15.188 7.92299 14.011 7.00799L14 6.99999ZM13 14L11 12L9 14L8 13L10 11L8 8.99999L9 7.99999L11 9.99999L13 7.99999L14 8.99999L12 11L14 13L13 14Z" fill="rgb(34, 34, 34)" fill-opacity="1.00"/></svg>

<!-- Generated by Trend Micro Style Portal -->
<svg version="1.1" xmlns="http://www.w3.org/2000/svg" width="16" height="16" viewBox="0 0 16 16">
  <title>partner-error-o</title>
  <path fill="rgb(34,34,34)" d="M5 11c0-0.002 0-0.004 0-0.006 0-0.405 0.040-0.8 0.116-1.182l-0.006 0.038-0.66-0.49c-0.447-0.316-0.834-0.625-1.205-0.953l0.015 0.013c-0.866-0.893-1.617-1.905-2.223-3.008l-0.037-0.072 2.56-3.82 0.53 0.18 0.61 0.21c-0.212 0.269-0.34 0.613-0.34 0.986 0 0.155 0.022 0.304 0.063 0.445l-0.003-0.011c0.1 0.374 0.328 0.684 0.634 0.886l0.006 0.004c0.172 0.131 0.384 0.218 0.615 0.24l0.005 0 3.73 0.27 0.49 0.36c0.312-0.057 0.671-0.090 1.037-0.090 0.022 0 0.044 0 0.066 0l-0.003-0h0.56l-0.76-0.56-0.37-0.27-0.32-0.25c-0.12-0.123-0.278-0.209-0.455-0.239l-0.005-0.001-1.8-0.13-2-0.15c-0.201-0.028-0.362-0.175-0.409-0.367l-0.001-0.003c-0.017-0.049-0.026-0.106-0.026-0.164 0-0.208 0.119-0.387 0.293-0.474l0.003-0.001c0.101-0.032 0.217-0.050 0.337-0.050 0.012 0 0.023 0 0.035 0.001l-0.002-0 1.2-0.060c0.583-0.004 1.148-0.069 1.693-0.19l-0.053 0.010c1.227-0.28 2.286-0.623 3.301-1.049l-0.131 0.049 2.91 3.5c-0.22 0.49-0.44 0.95-0.67 1.39 0.295 0.199 0.553 0.406 0.793 0.633l-0.003-0.003c0.29-0.54 0.56-1.1 0.84-1.71 0.047-0.1 0.075-0.218 0.075-0.342 0-0.197-0.070-0.378-0.186-0.52l0.001 0.001-3.1-3.72c-0.146-0.177-0.365-0.289-0.611-0.289-0.108 0-0.211 0.022-0.305 0.061l0.005-0.002c-0.882 0.371-1.943 0.714-3.038 0.972l-0.142 0.028c-0.436 0.095-0.936 0.15-1.45 0.15h-0.83c-0.818-0.199-1.485-0.405-2.137-0.644l0.137 0.044-0.69-0.14h-0.22c-0.272 0.003-0.511 0.144-0.648 0.357l-0.002 0.003-2.67 4c-0.078 0.123-0.125 0.274-0.125 0.435s0.047 0.312 0.127 0.438l-0.002-0.003c0.532 0.981 1.075 1.818 1.676 2.609l-0.036-0.049c-0.17 0.228-0.279 0.509-0.3 0.815l-0 0.005c-0.002 0.030-0.003 0.066-0.003 0.101 0 0.376 0.133 0.722 0.355 0.991l-0.002-0.003c0.175 0.211 0.406 0.371 0.67 0.457l0.010 0.003c-0.029 0.076-0.053 0.167-0.069 0.261l-0.001 0.009c-0.002 0.031-0.003 0.067-0.003 0.104 0 0.379 0.133 0.727 0.356 0.999l-0.002-0.003c0.241 0.298 0.594 0.496 0.995 0.53l0.005 0h0.11c0.135-0.007 0.261-0.032 0.38-0.073l-0.010 0.003c0.057 0.204 0.149 0.381 0.272 0.533l-0.002-0.003c0.227 0.277 0.56 0.461 0.935 0.49l0.005 0h0.070c-0.352-0.739-0.558-1.605-0.56-2.519v-0.001zM3 9.75v0c-0.13-0.009-0.244-0.073-0.319-0.169l-0.001-0.001c-0.076-0.095-0.122-0.216-0.122-0.348 0-0.015 0.001-0.029 0.002-0.044l-0 0.002c-0.001-0.009-0.001-0.019-0.001-0.030s0-0.021 0.001-0.031l-0 0.001c0.16 0.15 0.36 0.32 0.63 0.53-0.053 0.044-0.117 0.075-0.187 0.090l-0.003 0zM4.26 11.47c-0.078 0.074-0.184 0.119-0.3 0.12h-0c-0.132-0.011-0.246-0.079-0.319-0.179l-0.001-0.001c-0.114-0.101-0.187-0.247-0.19-0.409l-0-0.001c0.007-0.146 0.071-0.277 0.17-0.37l0.29-0.27 0.090-0.050 0.82 0.61z"></path>
  <path fill="rgb(34,34,34)" d="M14 7c-0.56-0.439-1.234-0.76-1.969-0.914l-0.031-0.006c-0.297-0.063-0.639-0.099-0.989-0.099-2.045 0-3.804 1.228-4.578 2.987l-0.013 0.032c-0.13 0.285-0.24 0.62-0.314 0.967l-0.006 0.033c-0.064 0.299-0.1 0.643-0.1 0.995 0 0.002 0 0.004 0 0.005v-0c0 0.13 0 0.25 0 0.38 0.009 0.193 0.027 0.372 0.054 0.548l-0.004-0.028s0 0.070 0 0.1 0.080 0.26 0.12 0.39c0.063 0.243 0.131 0.447 0.212 0.643l-0.012-0.033c0.094 0.199 0.184 0.363 0.282 0.521l-0.012-0.021c0.886 1.482 2.482 2.459 4.306 2.459 2.761 0 5-2.239 5-5 0-1.606-0.758-3.036-1.935-3.951l-0.011-0.008zM13 14l-2-2-2 2-1-1 2-2-2-2 1-1 2 2 2-2 1 1-2 2 2 2z"></path>
</svg>
